Adwaita++/mimetypes/16/model-x.stl-binary.svg

<svg height="16" width="16" xmlns="http://www.w3.org/2000/svg">
  <path d="m11.102017 4.1215356c-1.959198 0-1.959193 1.959197-1.959193 1.959197v4.8979824h.979597v-4.8979824s0-.979599.979596-.979599h.979597v4.408186h.979596v-4.408186h.979596c.979597 0 .979597.979599.979597.979599v4.8979824h.979596v-4.8979824s0-1.959197-1.959193-1.959197zm-9.142825.02129s-1.959192 0-1.959192 1.959192v2.93879c0 1.9591924 1.959192 1.9591924 1.959192 1.9591924h1.959193v-.979593h-1.959193s-.97959597-.000005-.97959597-.9795994v-1.010208h1.79584597v-.918373h-1.79584597v-1.010208c0-.979598.97959597-.979598.97959597-.979598h1.959193v-.979594zm4.408189 0s-1.959198 0-1.959198 1.959192v2.93879c0 1.9591924 1.959198 1.9591924 1.959198 1.9591924h1.959193v-.979593h-1.959193s-.979596-.000005-.979596-.9795994v-2.93879c0-.979598.979596-.979598.979596-.979598h1.959193v-.979593z" fill="#474747"/>
</svg>

<svg xmlns="http://www.w3.org/2000/svg" width="16" height="16" version="1.1">
 <path style="fill:#474747" d="m 11.102017,4.1215356 c -1.959198,0 -1.959193,1.959197 -1.959193,1.959197 v 4.8979824 h 0.979597 V 6.0807326 c 0,0 0,-0.979599 0.979596,-0.979599 h 0.979597 v 4.408186 h 0.979596 v -4.408186 h 0.979596 c 0.979597,0 0.979597,0.979599 0.979597,0.979599 v 4.8979824 h 0.979596 V 6.0807326 c 0,0 0,-1.959197 -1.959193,-1.959197 z m -9.142825,0.02129 c 0,0 -1.959192,0 -1.959192,1.959192 v 2.93879 C 0,11 1.959192,11 1.959192,11 H 3.918385 V 10.020407 H 1.959192 c 0,0 -0.97959597,-5e-6 -0.97959597,-0.9795994 V 8.0305996 H 2.775442 V 7.1122266 H 0.97959603 v -1.010208 c 0,-0.979598 0.97959597,-0.979598 0.97959597,-0.979598 h 1.959193 v -0.979594 z m 4.408189,0 c 0,0 -1.959198,0 -1.959198,1.959192 v 2.93879 C 4.408183,11 6.367381,11 6.367381,11 H 8.326574 V 10.020407 H 6.367381 c 0,0 -0.979596,-5e-6 -0.979596,-0.9795994 v -2.93879 c 0,-0.979598 0.979596,-0.979598 0.979596,-0.979598 h 1.959193 v -0.979593 z"/>
</svg>
